;FLAVOR:RepRap
;TIME:7793
;Filament used: 1.4491m
;Layer height: 0.1
;MINX:166.303
;MINY:184.064
;MINZ:0.3
;MAXX:229.789
;MAXY:215.935
;MAXZ:48
;Generated with Cura_SteamEngine 4.13.1
T0
M190 S60
M104 S200
M109 S200
M82 ;absolute extrusion mode
G28 ;Home
G1 Z15.0 F6000 ;Move the platform down 15mm
;Prime the extruder
G92 E0
G1 F200 E3
G92 E0
M83 ;relative extrusion mode
G1 F1500 E-6.5
;LAYER_COUNT:478
;LAYER:0
M107
G0 F3600 X169.749 Y187.713 Z0.3
;TYPE:SKIRT
G1 F1500 E6.5
G1 F1800 X169.936 Y187.562 E0.00452
G1 X170.843 Y186.931 E0.02078
G1 X171.041 Y186.813 E0.00434
G1 X171.939 Y186.353 E0.01898
G1 X172.131 Y186.27 E0.00393
G1 X173.101 Y185.925 E0.01937
G1 X173.373 Y185.848 E0.00532
G1 X174.143 Y185.672 E0.01486
G1 X174.802 Y185.58 E0.01252
G1 X175.275 Y185.537 E0.00893
G1 X198.81 Y184.099 E0.44353
G1 X199.466 Y184.072 E0.01235
G1 X200.063 Y184.064 E0.01123
G1 X200.646 Y184.072 E0.01097
G1 X201.34 Y184.101 E0.01307
G1 X201.971 Y184.145 E0.0119
G1 X202.674 Y184.217 E0.01329
G1 X203.264 Y184.293 E0.01119
G1 X203.951 Y184.402 E0.01308
G1 X204.56 Y184.517 E0.01166
G1 X205.225 Y184.66 E0.01279
G1 X205.825 Y184.809 E0.01163
G1 X206.623 Y185.035 E0.0156
G1 X207.242 Y185.232 E0.01222
G1 X207.772 Y185.414 E0.01054
G1 X208.378 Y185.642 E0.01218
G1 X208.942 Y185.873 E0.01146
G1 X209.447 Y186.095 E0.01038
G1 X209.996 Y186.352 E0.0114
G1 X210.554 Y186.632 E0.01174
G1 X211.015 Y186.879 E0.00984
G1 X211.618 Y187.223 E0.01306
G1 X212.26 Y187.616 E0.01416
G1 X212.882 Y188.025 E0.014
G1 X213.322 Y188.334 E0.01011
G1 X213.732 Y188.634 E0.00956
G1 X214.244 Y189.03 E0.01218
G1 X214.487 Y189.228 E0.0059
G1 X215.004 Y189.666 E0.01275
G1 X215.537 Y190.146 E0.01349
G1 X215.974 Y190.563 E0.01136
G1 X216.469 Y191.062 E0.01322
G1 X216.841 Y191.459 E0.01023
G1 X217.225 Y191.89 E0.01086
G1 X217.66 Y192.404 E0.01267
G1 X218.049 Y192.894 E0.01177
G1 X218.353 Y193.297 E0.0095
G1 X218.717 Y193.804 E0.01174
G1 X219.005 Y194.226 E0.00961
G1 X219.29 Y194.668 E0.00989
G1 X219.643 Y195.245 E0.01272
G1 X219.887 Y195.683 E0.00943
G1 X220.011 Y195.923 E0.00508
G1 X220.337 Y196.642 E0.01485
G1 X220.532 Y197.196 E0.01105
G1 X220.606 Y197.435 E0.00471
G1 X220.801 Y198.2 E0.01485
G1 X220.908 Y198.884 E0.01302
G1 X220.934 Y199.119 E0.00445
G1 X220.981 Y199.908 E0.01487
G1 X220.963 Y200.503 E0.0112
G1 X220.949 Y200.71 E0.0039
G1 X220.856 Y201.495 E0.01487
G1 X220.722 Y202.125 E0.01212
G1 X220.648 Y202.413 E0.00559
G1 X220.413 Y203.167 E0.01486
G1 X220.126 Y203.845 E0.01385
G1 X220.032 Y204.041 E0.00409
G1 X219.723 Y204.621 E0.01236
G1 X219.382 Y205.188 E0.01245
G1 X219.08 Y205.661 E0.01056
G1 X218.751 Y206.151 E0.0111
G1 X218.331 Y206.736 E0.01355
G1 X218.157 Y206.968 E0.00546
G1 X217.846 Y207.367 E0.00952
G1 X217.475 Y207.816 E0.01096
G1 X217.143 Y208.205 E0.00962
G1 X216.798 Y208.59 E0.00972
G1 X216.327 Y209.085 E0.01285
G1 X215.956 Y209.456 E0.00987
G1 X215.482 Y209.907 E0.01231
G1 X215.015 Y210.323 E0.01176
G1 X214.543 Y210.726 E0.01167
G1 X213.935 Y211.211 E0.01463
G1 X213.73 Y211.366 E0.00483
G1 X213.174 Y211.772 E0.01295
G1 X212.392 Y212.298 E0.01773
G1 X211.688 Y212.736 E0.0156
G1 X211.098 Y213.075 E0.0128
G1 X210.466 Y213.412 E0.01347
G1 X210.286 Y213.504 E0.0038
G1 X209.808 Y213.739 E0.01002
G1 X209.321 Y213.962 E0.01008
G1 X208.737 Y214.213 E0.01196
G1 X208.207 Y214.424 E0.01073
G1 X207.563 Y214.661 E0.01291
G1 X206.954 Y214.864 E0.01208
G1 X206.252 Y215.072 E0.01377
G1 X205.467 Y215.282 E0.01529
G1 X204.835 Y215.425 E0.01219
G1 X204.033 Y215.584 E0.01538
G1 X203.804 Y215.624 E0.00437
G1 X203.298 Y215.703 E0.00963
G1 X202.549 Y215.797 E0.0142
G1 X201.766 Y215.871 E0.01479
G1 X201.052 Y215.913 E0.01345
G1 X200.523 Y215.931 E0.00996
G1 X199.837 Y215.935 E0.0129
G1 X199.183 Y215.918 E0.01231
G1 X198.656 Y215.892 E0.00993
G1 X190.966 Y215.42 E0.14493
G1 X190.399 Y215.387 E0.01068
G1 X190.153 Y215.37 E0.00464
G1 X188.891 Y215.295 E0.02378
G1 X188.208 Y215.253 E0.01287
G1 X177.614 Y214.608 E0.19965
G1 X175.216 Y214.458 E0.0452
G1 X174.52 Y214.386 E0.01316
G1 X173.365 Y214.15 E0.02218
G1 X173.08 Y214.069 E0.00557
G1 X172.008 Y213.678 E0.02146
G1 X171.806 Y213.587 E0.00417
G1 X170.897 Y213.103 E0.01937
G1 X170.702 Y212.982 E0.00432
G1 X169.84 Y212.362 E0.01997
G1 X169.683 Y212.232 E0.00383
G1 X168.939 Y211.528 E0.01927
G1 X168.76 Y211.335 E0.00495
G1 X168.253 Y210.73 E0.01485
G1 X167.882 Y210.199 E0.01218
G1 X167.354 Y209.289 E0.01979
G1 X167.251 Y209.08 E0.00438
G1 X166.836 Y208.063 E0.02066
G1 X166.755 Y207.816 E0.00489
G1 X166.5 Y206.817 E0.01939
G1 X166.452 Y206.56 E0.00492
G1 X166.335 Y205.62 E0.01782
G1 X166.303 Y204.874 E0.01405
G1 X166.304 Y195.094 E0.18397
G1 X166.324 Y194.535 E0.01052
G1 X166.341 Y194.299 E0.00445
G1 X166.456 Y193.414 E0.01679
G1 X166.502 Y193.17 E0.00467
G1 X166.781 Y192.107 E0.02067
G1 X166.872 Y191.839 E0.00532
G1 X167.308 Y190.806 E0.02109
G1 X167.416 Y190.594 E0.00448
G1 X167.974 Y189.664 E0.0204
G1 X168.109 Y189.471 E0.00443
G1 X168.775 Y188.645 E0.01996
G1 X168.923 Y188.485 E0.0041
G1 X169.749 Y187.713 E0.02127
G0 F3600 X170 Y188.025
G1 F1800 X170.187 Y187.874 E0.00452
G1 X171.048 Y187.274 E0.01974
G1 X171.246 Y187.156 E0.00434
G1 X172.098 Y186.721 E0.01799
G1 X172.29 Y186.638 E0.00393
G1 X173.21 Y186.31 E0.01837
G1 X173.482 Y186.233 E0.00532
G1 X174.598 Y186.008 E0.02141
G1 X175.3 Y185.936 E0.01327
G1 X198.835 Y184.498 E0.44353
G1 X199.481 Y184.472 E0.01216
G1 X200.06 Y184.464 E0.01089
G1 X200.631 Y184.472 E0.01074
G1 X201.321 Y184.501 E0.01299
G1 X201.941 Y184.544 E0.01169
G1 X202.632 Y184.615 E0.01307
G1 X203.211 Y184.689 E0.01098
G1 X203.886 Y184.797 E0.01286
G1 X204.478 Y184.908 E0.01133
G1 X205.131 Y185.049 E0.01257
G1 X205.72 Y185.195 E0.01141
G1 X206.511 Y185.419 E0.01546
G1 X207.118 Y185.612 E0.01198
G1 X207.634 Y185.79 E0.01027
G1 X208.228 Y186.013 E0.01193
G1 X208.782 Y186.24 E0.01126
G1 X209.279 Y186.458 E0.01021
G1 X209.819 Y186.711 E0.01122
G1 X210.371 Y186.988 E0.01162
G1 X210.825 Y187.231 E0.00969
G1 X211.41 Y187.564 E0.01266
G1 X211.888 Y187.855 E0.01053
G1 X212.427 Y188.201 E0.01205
G1 X213.092 Y188.66 E0.0152
G1 X213.651 Y189.075 E0.0131
G1 X214.228 Y189.533 E0.01386
G1 X214.745 Y189.971 E0.01275
G1 X215.269 Y190.442 E0.01325
G1 X215.695 Y190.85 E0.0111
G1 X216.184 Y191.343 E0.01306
G1 X216.547 Y191.73 E0.00998
G1 X216.921 Y192.15 E0.01058
G1 X217.352 Y192.66 E0.01256
G1 X217.73 Y193.135 E0.01142
G1 X218.034 Y193.538 E0.0095
G1 X218.386 Y194.03 E0.01138
G1 X218.674 Y194.452 E0.00961
G1 X218.952 Y194.882 E0.00963
G1 X219.3 Y195.451 E0.01255
G1 X219.655 Y196.106 E0.01401
G1 X219.972 Y196.807 E0.01447
G1 X220.15 Y197.314 E0.01011
G1 X220.224 Y197.553 E0.00471
G1 X220.413 Y198.299 E0.01448
G1 X220.51 Y198.928 E0.01197
G1 X220.536 Y199.163 E0.00445
G1 X220.581 Y199.931 E0.01447
G1 X220.564 Y200.476 E0.01026
G1 X220.55 Y200.683 E0.0039
G1 X220.458 Y201.447 E0.01448
G1 X220.334 Y202.026 E0.01114
G1 X220.26 Y202.314 E0.00559
G1 X220.03 Y203.048 E0.01447
G1 X219.765 Y203.672 E0.01275
G1 X219.671 Y203.868 E0.00409
G1 X219.378 Y204.419 E0.01174
G1 X219.045 Y204.973 E0.01216
G1 X218.747 Y205.439 E0.0104
G1 X218.424 Y205.92 E0.0109
G1 X218.007 Y206.502 E0.01347
G1 X217.841 Y206.722 E0.00518
G1 X217.53 Y207.121 E0.00952
G1 X217.169 Y207.558 E0.01066
G1 X216.839 Y207.946 E0.00958
G1 X216.503 Y208.32 E0.00946
G1 X216.038 Y208.808 E0.01268
G1 X215.677 Y209.169 E0.0096
G1 X215.209 Y209.615 E0.01216
G1 X214.75 Y210.023 E0.01155
G1 X214.285 Y210.421 E0.01151
G1 X213.688 Y210.896 E0.01435
G1 X213.494 Y211.044 E0.00459
G1 X213.091 Y211.34 E0.00941
G1 X212.588 Y211.69 E0.01153
G1 X212.104 Y212.009 E0.0109
G1 X211.481 Y212.394 E0.01378
G1 X210.899 Y212.728 E0.01262
G1 X210.281 Y213.058 E0.01318
G1 X210.11 Y213.145 E0.00361
G1 X209.632 Y213.38 E0.01002
G1 X209.153 Y213.599 E0.00991
G1 X208.581 Y213.844 E0.01171
G1 X208.066 Y214.05 E0.01043
G1 X207.429 Y214.284 E0.01277
G1 X206.829 Y214.483 E0.01189
G1 X206.145 Y214.687 E0.01343
G1 X205.378 Y214.892 E0.01493
G1 X204.753 Y215.034 E0.01206
G1 X203.959 Y215.191 E0.01522
G1 X203.743 Y215.228 E0.00412
G1 X203.237 Y215.307 E0.00963
G1 X202.977 Y215.343 E0.00494
G1 X202.402 Y215.412 E0.01089
G1 X201.733 Y215.473 E0.01264
G1 X201.03 Y215.514 E0.01325
G1 X200.512 Y215.531 E0.00975
G1 X199.845 Y215.535 E0.01255
G1 X199.196 Y215.519 E0.01221
G1 X198.68 Y215.493 E0.00972
G1 X190.948 Y215.018 E0.14572
G1 X190.427 Y214.988 E0.00982
G1 X190.21 Y214.973 E0.00409
G1 X188.918 Y214.896 E0.02435
G1 X188.231 Y214.854 E0.01295
G1 X177.639 Y214.209 E0.19961
G1 X175.241 Y214.059 E0.0452
G1 X174.57 Y213.989 E0.01269
G1 X173.474 Y213.765 E0.02104
G1 X173.189 Y213.684 E0.00557
G1 X172.173 Y213.313 E0.02035
G1 X171.971 Y213.222 E0.00417
G1 X171.108 Y212.763 E0.01839
G1 X170.913 Y212.642 E0.00432
G1 X170.096 Y212.054 E0.01893
G1 X169.939 Y211.924 E0.00383
G1 X169.232 Y211.256 E0.0183
G1 X169.053 Y211.063 E0.00495
G1 X168.342 Y210.166 E0.02153
G1 X168.214 Y209.976 E0.00431
G1 X167.713 Y209.112 E0.01879
G1 X167.61 Y208.903 E0.00438
G1 X167.216 Y207.938 E0.01961
G1 X167.135 Y207.691 E0.00489
G1 X166.893 Y206.744 E0.01839
G1 X166.845 Y206.487 E0.00492
G1 X166.734 Y205.595 E0.01691
G1 X166.703 Y204.874 E0.01357
G1 X166.704 Y195.094 E0.18397
G1 X166.723 Y194.563 E0.00999
G1 X166.74 Y194.327 E0.00445
G1 X166.849 Y193.488 E0.01591
G1 X166.895 Y193.244 E0.00467
G1 X167.16 Y192.236 E0.01961
G1 X167.251 Y191.968 E0.00532
G1 X167.664 Y190.988 E0.02
G1 X167.772 Y190.776 E0.00448
G1 X168.302 Y189.893 E0.01937
G1 X168.437 Y189.7 E0.00443
G1 X169.069 Y188.917 E0.01893
G1 X169.217 Y188.757 E0.0041
G1 X170 Y188.025 E0.02016
G0 F3600 X170.251 Y188.336
G1 F1800 X170.438 Y188.185 E0.00452
G1 X171.252 Y187.618 E0.01866
G1 X171.45 Y187.5 E0.00434
G1 X172.256 Y187.088 E0.01703
G1 X172.448 Y187.005 E0.00393
G1 X173.319 Y186.695 E0.01739
G1 X173.591 Y186.618 E0.00532
G1 X174.647 Y186.405 E0.02026
G1 X175.324 Y186.335 E0.0128
G1 X198.859 Y184.897 E0.44353
G1 X199.495 Y184.872 E0.01197
G1 X200.057 Y184.864 E0.01057
G1 X200.617 Y184.872 E0.01053
G1 X201.301 Y184.9 E0.01288
G1 X201.911 Y184.943 E0.0115
G1 X202.589 Y185.012 E0.01282
G1 X203.159 Y185.086 E0.01081
G1 X203.821 Y185.191 E0.01261
G1 X204.396 Y185.3 E0.01101
G1 X205.036 Y185.437 E0.01231
G1 X205.615 Y185.581 E0.01122
G1 X206.399 Y185.803 E0.01533
G1 X206.994 Y185.992 E0.01174
G1 X207.495 Y186.165 E0.00997
G1 X208.077 Y186.383 E0.01169
G1 X208.623 Y186.607 E0.0111
G1 X209.111 Y186.821 E0.01002
G1 X209.642 Y187.07 E0.01103
G1 X210.188 Y187.343 E0.01148
G1 X210.636 Y187.583 E0.00956
G1 X211.202 Y187.906 E0.01226
G1 X211.828 Y188.289 E0.0138
G1 X212.436 Y188.689 E0.01369
G1 X212.861 Y188.987 E0.00976
G1 X213.405 Y189.39 E0.01273
G1 X213.97 Y189.838 E0.01356
G1 X214.487 Y190.276 E0.01275
G1 X215 Y190.739 E0.013
G1 X215.416 Y191.137 E0.01083
G1 X215.899 Y191.624 E0.0129
G1 X216.253 Y192.001 E0.00973
G1 X216.617 Y192.41 E0.0103
G1 X217.045 Y192.916 E0.01247
G1 X217.41 Y193.375 E0.01103
G1 X217.714 Y193.778 E0.0095
G1 X218.056 Y194.255 E0.01104
G1 X218.344 Y194.677 E0.00961
G1 X218.716 Y195.256 E0.01295
G1 X219.176 Y196.05 E0.01726
G1 X219.3 Y196.29 E0.00508
G1 X219.607 Y196.972 E0.01407
G1 X219.842 Y197.672 E0.01389
G1 X220.025 Y198.397 E0.01407
G1 X220.113 Y198.972 E0.01094
G1 X220.139 Y199.207 E0.00445
G1 X220.181 Y199.954 E0.01407
G1 X220.151 Y200.656 E0.01322
G1 X220.061 Y201.399 E0.01408
G1 X219.947 Y201.926 E0.01014
G1 X219.873 Y202.214 E0.00559
G1 X219.648 Y202.928 E0.01408
G1 X219.405 Y203.499 E0.01167
G1 X219.311 Y203.695 E0.00409
G1 X219.033 Y204.216 E0.01111
G1 X218.708 Y204.758 E0.01189
G1 X218.509 Y205.071 E0.00698
G1 X218.203 Y205.535 E0.01046
G1 X217.877 Y206.002 E0.01071
G1 X217.526 Y206.476 E0.01109
G1 X217.215 Y206.875 E0.00952
G1 X216.863 Y207.3 E0.01038
G1 X216.534 Y207.686 E0.00954
G1 X216.093 Y208.172 E0.01234
G1 X215.631 Y208.652 E0.01253
G1 X215.219 Y209.056 E0.01085
G1 X214.788 Y209.457 E0.01107
G1 X214.298 Y209.887 E0.01226
G1 X213.83 Y210.276 E0.01145
G1 X213.257 Y210.722 E0.01366
G1 X212.854 Y211.018 E0.00941
G1 X212.368 Y211.356 E0.01114
G1 X211.887 Y211.672 E0.01083
G1 X211.275 Y212.051 E0.01354
G1 X210.7 Y212.381 E0.01247
G1 X210.095 Y212.704 E0.0129
G1 X209.933 Y212.786 E0.00342
G1 X209.455 Y213.021 E0.01002
G1 X208.986 Y213.235 E0.0097
G1 X208.426 Y213.476 E0.01147
G1 X207.924 Y213.676 E0.01016
G1 X207.296 Y213.907 E0.01259
G1 X206.705 Y214.103 E0.01171
G1 X206.038 Y214.301 E0.01309
G1 X205.289 Y214.502 E0.01459
G1 X204.671 Y214.642 E0.01192
G1 X203.886 Y214.798 E0.01506
G1 X203.681 Y214.833 E0.00391
G1 X203.175 Y214.912 E0.00963
G1 X202.454 Y215.003 E0.01367
G1 X201.7 Y215.074 E0.01425
G1 X201.008 Y215.115 E0.01304
G1 X200.501 Y215.131 E0.00954
G1 X199.852 Y215.135 E0.01221
G1 X199.21 Y215.119 E0.01208
G1 X198.705 Y215.094 E0.00951
G1 X190.973 Y214.619 E0.14572
G1 X190.455 Y214.589 E0.00976
G1 X190.234 Y214.574 E0.00417
G1 X188.945 Y214.497 E0.02429
G1 X188.254 Y214.455 E0.01302
G1 X177.664 Y213.809 E0.19957
G1 X175.266 Y213.659 E0.0452
G1 X174.62 Y213.592 E0.01222
G1 X173.583 Y213.38 E0.01991
G1 X173.298 Y213.299 E0.00557
G1 X172.337 Y212.948 E0.01924
G1 X172.135 Y212.857 E0.00417
G1 X171.319 Y212.423 E0.01739
G1 X171.124 Y212.302 E0.00432
G1 X170.351 Y211.746 E0.01791
G1 X170.194 Y211.616 E0.00383
G1 X169.526 Y210.984 E0.0173
G1 X169.347 Y210.791 E0.00495
G1 X168.674 Y209.942 E0.02038
G1 X168.546 Y209.752 E0.00431
G1 X168.072 Y208.935 E0.01777
G1 X167.969 Y208.726 E0.00438
G1 X167.597 Y207.813 E0.01854
G1 X167.516 Y207.566 E0.00489
G1 X167.286 Y206.67 E0.0174
G1 X167.238 Y206.413 E0.00492
G1 X167.133 Y205.57 E0.01598
G1 X167.103 Y204.874 E0.0131
G1 X167.104 Y195.094 E0.18397
G1 X167.122 Y194.592 E0.00945
G1 X167.139 Y194.356 E0.00445
G1 X167.242 Y193.562 E0.01506
G1 X167.288 Y193.318 E0.00467
G1 X167.539 Y192.364 E0.01856
G1 X167.63 Y192.096 E0.00532
G1 X168.021 Y191.17 E0.01891
G1 X168.129 Y190.958 E0.00448
G1 X168.63 Y190.123 E0.01832
G1 X168.765 Y189.93 E0.00443
G1 X169.362 Y189.189 E0.0179
G1 X169.51 Y189.029 E0.0041
G1 X170.251 Y188.336 E0.01908
G0 F3600 X170.503 Y188.647
G1 F1800 X170.69 Y188.496 E0.00452
G1 X171.457 Y187.961 E0.01759
G1 X171.655 Y187.843 E0.00434
G1 X172.415 Y187.455 E0.01605
G1 X172.607 Y187.372 E0.00393
G1 X173.428 Y187.08 E0.01639
G1 X173.7 Y187.003 E0.00532
G1 X174.695 Y186.802 E0.01909
G1 X175.348 Y186.734 E0.01235
G1 X198.883 Y185.296 E0.44353
G1 X199.51 Y185.271 E0.0118
G1 X200.053 Y185.264 E0.01021
G1 X200.602 Y185.271 E0.01033
G1 X201.282 Y185.3 E0.0128
G1 X201.882 Y185.342 E0.01131
G1 X202.546 Y185.41 E0.01256
G1 X203.106 Y185.482 E0.01062
G1 X203.757 Y185.586 E0.0124
G1 X204.315 Y185.691 E0.01068
G1 X204.941 Y185.826 E0.01205
G1 X205.51 Y185.967 E0.01103
G1 X206.287 Y186.187 E0.01519
G1 X206.87 Y186.372 E0.01151
G1 X207.357 Y186.54 E0.00969
G1 X207.927 Y186.754 E0.01145
G1 X208.463 Y186.974 E0.0109
G1 X208.943 Y187.184 E0.00986
G1 X209.465 Y187.428 E0.01084
G1 X210.004 Y187.699 E0.01135
G1 X210.446 Y187.935 E0.00943
G1 X210.994 Y188.248 E0.01187
G1 X211.472 Y188.539 E0.01053
G1 X211.981 Y188.865 E0.01137
G1 X212.63 Y189.314 E0.01484
G1 X213.159 Y189.706 E0.01239
G1 X213.711 Y190.143 E0.01324
G1 X214.228 Y190.581 E0.01275
G1 X214.732 Y191.036 E0.01277
G1 X215.138 Y191.424 E0.01056
G1 X215.615 Y191.905 E0.01274
G1 X215.959 Y192.272 E0.00946
G1 X216.313 Y192.67 E0.01002
G1 X216.737 Y193.172 E0.01236
G1 X217.091 Y193.616 E0.01068
G1 X217.395 Y194.019 E0.0095
G1 X217.725 Y194.481 E0.01068
G1 X218.013 Y194.903 E0.00961
G1 X218.373 Y195.462 E0.01251
G1 X218.821 Y196.233 E0.01677
G1 X218.945 Y196.473 E0.00508
G1 X219.242 Y197.136 E0.01367
G1 X219.46 Y197.79 E0.01297
G1 X219.636 Y198.495 E0.01367
G1 X219.715 Y199.016 E0.00991
G1 X219.741 Y199.251 E0.00445
G1 X219.781 Y199.976 E0.01366
G1 X219.752 Y200.629 E0.0123
G1 X219.663 Y201.35 E0.01367
G1 X219.485 Y202.114 E0.01476
G1 X219.266 Y202.807 E0.01367
G1 X219.044 Y203.326 E0.01062
G1 X218.95 Y203.522 E0.00409
G1 X218.688 Y204.013 E0.01047
G1 X218.37 Y204.543 E0.01163
G1 X218.081 Y204.996 E0.01011
G1 X217.77 Y205.459 E0.01049
G1 X217.358 Y206.034 E0.01331
G1 X217.211 Y206.23 E0.00461
G1 X216.9 Y206.629 E0.00952
G1 X216.558 Y207.042 E0.01009
